/* XPM */
static char * close_prelight_xpm[] = {
"24 26 4 1",
" 	c None",
".	c #f2f2f7",
"+	c #3c3c43",
"@	c #f2f2f7",
"@@@@@@@@@@@@@@@@@@@@@@@@",
"........................",
"........................",
"........................",
"........................",
"........................",
"........................",
"........................",
"........................",
"........++....++........",
"........+++..+++........",
".........++++++.........",
"..........++++..........",
"..........++++..........",
".........++++++.........",
"........+++..+++........",
"........++....++........",
"........................",
"........................",
"........................",
"........................",
"........................",
"........................",
"........................",
"........................",
"........................"};
