/* XPM */
static char * shade_prelight_xpm[] = {
"24 26 4 1",
" 	c None",
".	c #f2f2f7",
"+	c #696970",
"@	c #f2f2f7",
"@@@@@@@@@@@@@@@@@@@@@@@@",
"........................",
"........................",
"........................",
"........................",
"........................",
"........................",
"........................",
"........................",
"...........++...........",
"..........++++..........",
".........++++++.........",
"........++++++++........",
".......+++.++.+++.......",
"...........++...........",
"...........++...........",
"...........++...........",
"........................",
"........................",
"........................",
"........................",
"........................",
"........................",
"........................",
"........................",
"........................"};
